X:27
T:Rory O'Moore
M:6/8
L:1/8
Q:1/8=300
K:G
%%MIDI channel 1
%%MIDI program 72
%%MIDI transpose 8
%%MIDI grace 1/8
%%MIDI ratio 3 1
e|:dGG BAG|dBG G2e|dBB BAG|FAA A2B/c/|
dGG BAG|Bcd edc|Bcd def|1 gGG G2 e:|2 gGG G2g|
gfe edB|cBA G2F|EFG GAB|Bed d2e/f/|
gfe edB|cBA G2F|EFG GAB|edd dz e|
dGG BAG|dBG G2e|dBB BAG|FAA A2B/c/|
dGG BAG|Bcd edc|Bcd def|gGG G2||
